X:76
T:Hunting The Rabbit. JBs.076
S:Jas.Blackshaw MS, 1837, N.Shropshire
A:North Shropshire
Z:T. Weatherall 2006
M:6/8
L:1/8
Q:3/8=120
R:Jig
K:C
c|ece ece|d2dd2d|fdf fdf|e2ee2e|!
aga bab|câ€™2câ€™câ€™2g|agf ege|ccc c2:|!
|:g|aga acâ€™a|ggg g2G|cec ece|gfe d2g|!
aga bgb|câ€™bcâ€™g2g|câ€™bcâ€™ gag|ecec2:|

